FINK
CUT[ALS JUENGSTENS HERR MERKURIUS]
REG[Europa, Mitteleuropa, Deutschland]
KEY[F0840  08  G 4/4]
MEL[-5_  1_1_1_3_  -5_.-5-5_
    -5_  4_.32_.3  -5_-7_10
    -5_  1_1_1_3_  -5_.-5-5_
    -5_  4_.32_.3  -5_-7_10
    1_  5_.43_1_  6_.54_
    3_  2_2_3_4_  5_.43_
    2_  1_1_1_3_  -5_.-6-5_
    3_  4_.2-7_-5_  2__10
    2_  1_1_1_3_  -5_.-6-5_
    3_  4_.2-7_-5_  2__10 //] >>
FCT[erzaehlendes Volks - Lied, Ballade; Scherz]
